src/storefront-views.svg

<svg xmlns="http://www.w3.org/2000/svg" class="dibsvg-svg dibsvg-storefront-views" viewBox="0 0 100 100">
    <path d="M31.4008517,51.6537893 L28.6514124,51.6537893 C27.7403283,51.6537893 27.0017488,50.9234234 27.0017488,50.0224714 L27.0017488,39.5174011 C27.0017488,39.4549051 27.0053026,39.3932299 27.0122214,39.3325623 C26.9784639,39.0621078 27.0134344,38.7769189 27.132174,38.4994403 L31.6270221,27.9955795 C31.8852647,27.3921009 32.4836044,27 33.1462605,27 L66.8537395,27 C67.5163956,27 68.1147353,27.3921009 68.3729779,27.9955795 L72.867826,38.4994403 C72.9865656,38.7769189 73.0215361,39.0621078 72.9877786,39.3325623 C72.9946974,39.3932299 72.9982512,39.4549051 72.9982512,39.5174011 L72.9982512,50.0224714 C72.9982512,50.9234234 72.2596717,51.6537893 71.3485876,51.6537893 L68.4089518,51.6537893 L68.4089518,71.3686822 C68.4089518,72.2696341 67.6703723,73 66.7592882,73 L33.0505153,73 C32.1394312,73 31.4008517,72.2696341 31.4008517,71.3686822 L31.4008517,51.6537893 Z M52.2965905,69.7373643 L65.1096246,69.7373643 L65.1096246,51.9922784 L52.2965905,51.9922784 L52.2965905,69.7373643 Z M48.9972633,69.7373643 L48.9972633,51.9922784 L34.7001789,51.9922784 L34.7001789,69.7373643 L48.9972633,69.7373643 Z M50,100 C22.3857625,100 0,77.6142375 0,50 C0,22.3857625 22.3857625,0 50,0 C77.6142375,0 100,22.3857625 100,50 C100,77.6142375 77.6142375,100 50,100 Z M50,96 C75.4050985,96 96,75.4050985 96,50 C96,24.5949015 75.4050985,4 50,4 C24.5949015,4 4,24.5949015 4,50 C4,75.4050985 24.5949015,96 50,96 Z M65.760533,30.2626357 L34.239467,30.2626357 L31.1407772,37.5038608 L68.8592228,37.5038608 L65.760533,30.2626357 Z M69.698924,48.3911536 L69.698924,41.148719 L30.301076,41.148719 L30.301076,48.3911536 L69.698924,48.3911536 Z"/>
</svg>

<svg xmlns="http://www.w3.org/2000/svg" class="dibsvg-svg dibsvg-storefront-views" viewBox="0 0 100 100">
    <path d="M31.4 51.654h-2.749a1.64 1.64 0 0 1-1.65-1.632V39.517c0-.062.004-.124.011-.184-.034-.27.001-.556.12-.834l4.495-10.503a1.65 1.65 0 0 1 1.52-.996h33.707a1.65 1.65 0 0 1 1.519.996l4.495 10.503a1.6 1.6 0 0 1 .12.834c.007.06.01.122.01.184v10.505a1.64 1.64 0 0 1-1.65 1.632H68.41v19.715A1.64 1.64 0 0 1 66.759 73H33.051a1.64 1.64 0 0 1-1.65-1.631V51.654zm20.897 18.083H65.11V51.992H52.297v17.745zm-3.3 0V51.992H34.7v17.745h14.297zM50 100C22.386 100 0 77.614 0 50S22.386 0 50 0s50 22.386 50 50-22.386 50-50 50zm0-4c25.405 0 46-20.595 46-46S75.405 4 50 4 4 24.595 4 50s20.595 46 46 46zm15.76-65.737H34.24l-3.1 7.24h37.72l-3.1-7.24zM69.7 48.39v-7.24H30.3v7.242h39.4z"/>
</svg>
